icons/send-backward.svg

<?xml version="1.0" encoding="UTF-8"?>
<svg width="50" height="50" version="1.1" viewBox="0 0 50 50" xmlns="http://www.w3.org/2000/svg">
<path d="m8.75 5s-3.75 0-3.75 3.75v20s0 3.75 3.75 3.75h6.25v-11.25s0-6.25 6.25-6.25h11.25v-6.25s0-3.75-3.75-3.75zm12.5 12.5s-3.75 0-3.75 3.75v20s0 3.75 3.75 3.75h20s3.75 0 3.75-3.75v-20s0-3.75-3.75-3.75zm1.25 5h17.5v17.5h-17.5z"/>
</svg>

<?xml version="1.0" encoding="UTF-8" standalone="no"?>
<svg
   xmlns:dc="http://purl.org/dc/elements/1.1/"
   xmlns:cc="http://creativecommons.org/ns#"
   xmlns:rdf="http://www.w3.org/1999/02/22-rdf-syntax-ns#"
   xmlns:svg="http://www.w3.org/2000/svg"
   xmlns="http://www.w3.org/2000/svg"
   id="svg4"
   viewBox="0 0 50 50"
   version="1.1"
   width="50"
   height="50">
  <metadata
     id="metadata10">
    <rdf:RDF>
      <cc:Work
         rdf:about="">
        <dc:format>image/svg+xml</dc:format>
        <dc:type
           rdf:resource="http://purl.org/dc/dcmitype/StillImage" />
        <dc:title></dc:title>
      </cc:Work>
    </rdf:RDF>
  </metadata>
  <defs
     id="defs8" />
  <path
     id="path2181"
     d="M 8.75,5 C 8.75,5 5,5 5,8.75 v 20 c 0,0 0,3.75 3.75,3.75 H 15 V 21.25 c 0,0 0,-6.25 6.25,-6.25 H 32.5 V 8.75 c 0,0 0,-3.75 -3.75,-3.75 z m 12.5,12.5 c 0,0 -3.75,0 -3.75,3.75 v 20 c 0,0 0,3.75 3.75,3.75 h 20 c 0,0 3.75,0 3.75,-3.75 v -20 c 0,0 0,-3.75 -3.75,-3.75 z m 1.25,5 H 40 V 40 H 22.5 Z" />
</svg>
